X:1
T:Title
%%score 1 { 2 | 3 }
L:1/8
Q:1/4=26
M:4/4
K:Bb
V:1 treble nm="MusicXML Part"
V:2 treble nm="MusicXML Part"
V:3 bass 
V:1
"^Sehr Langsam (Very Slowly)" z8 | z8 |: B3 A/B/ (d7/2 c/) | B2 z2 (c2{dc} B/A/) (G/A/) | %4
w: ||A- ve Ma- ri- *|a! Jung- * * frau *|
w: ||A- ve Ma- ri- *|a! Un- * * be- *|
w: ||A- ve Ma- ri- *|a! Rei- * * ne *|
 B2 z d d3/2(c/4B/4) A/G/d/=e/ | d2 ^c>A =c>B (6:4:6(A/c/)d/(e/c/)A/ | %6
w: mild! Er- ho- re * ei- ner Jung- frau|Fle- hen! Aus die- sem Fel- * sen, starr * und|
w: fleckt! Wenn wir auf * die- sen Fels hin-|sin- ken zum Schlaf, und uns * dein Schutz * be-|
w: Magd! Der Er- de * und der Luft Da-|mon- nen, von dei nes Au- * ges Huld * ver-|
 B3 (d/c/) c>A (6:4:6(G/=B/)d/(f/d/)B/ | (c2- (6:4:6c/G/A/B/{cB}A/G/) F2 z F | %8
w: wild, soll * mein Ge- bet- * zu dir * hin-|we- * * * * * * hen. Wir|
w: deckt, wird * weich der har- * te Fels * uns|dun- * * * * * * ken. Du|
w: jagt, sie * kon- nen hier * nicht bei * uns|woh- * * * * * * nen! Wir|
 c>c c/>=B/c/>d/ (c/>d/)_B z B | c>c (6:4:6(c/=B/)c/(e/d/)c/ _B2 z B | %10
w: schla- fen si- cher bis zum Mor- * gen, ob|Men- schen noch * so grau- * sam sind. O|
w: la- chelst, Ro- sen duf- te we- * hen in|die- ser dump- * fen Fel- * seng ruft. O|
w: woll'n uns still dem Schick- sal beu- * gen, da|uns dein heil'- * ger Trost * an- weht, der|
 c>c d/>d/(3Pd/e/d/{/f} ee z3/2 G/ |{/d} cc (6:4:6(B/A/)B/(_d/c/)B/ c3 z | B3 A/B/ (d7/2 c/) | %13
w: Jung- frau, sieh' der Jung- * frau Sor- gen, o|Mut- ter- hor' * ein bit- * tend Kind!|A- ve Ma- ri- *|
w: Mut- ter, ho- re Kin- * des Fle- hen, o|Jung- frau- ei- * ne Jung- * frau ruft!|A- ve Ma- ri- *|
w: Jung- frau wol- le hold * dich nei- gen, dem|Kind, das fur- * den Va- * ter fleht!|A- ve Ma- ri- *|
 B2 z2 z4 | z8 :| z8 | z8 |] %17
w: a!||||
w: a!||||
w: a!||||
V:2
"^Sehr Langsam (Very Slowly)" (6:4:6z/ .[DF]/.[FB]/!>!.[Bd]/.[FB]/.[DF]/ (6:4:6z/ (.[DF]/.[FB]/!>!.[Bd]/.[FB]/.[DF]/) (6:4:6z/ (.[FB]/.[Bd]/!>!.[df]/.[Bd]/.[FB]/) (6:4:6z/ (.[_Ad]/.[df]/!>!.[f_a]/.[df]/.[Ad]/) | %1
 (6:4:6z/ [GB]/[Be]/[eg]/[Be]/[GB]/ (6:4:6z/ [_GA]/[Ae]/[e_g]/[Ae]/[GA]/ (6:4:6z/ [FB]/[Bd]/[df]/[Bd]/[FB]/ (6:4:6z/ [DF]/[FB]/[Bd]/[FB]/[DF]/ |: %2
 (6:4:6z/ [DF]/[FB]/[Bd]/[FB]/[DF]/ (6:4:6z/ [D=E]/[EB]/[Bd]/[EB]/[DE]/ (6:4:6z/ [DF]/[FB]/[Bd]/[FB]/[DF]/ (6:4:6z/ [_EA]/[Ac]/[ce]/[Ac]/[EA]/ | %3
 (6:4:6z/ [DG]/[GB]/[Bd]/[GB]/[DG]/ (6:4:6z/ [DG]/[GB]/[Bd]/[GB]/[DG]/ (6:4:6z/ [EG]/[Gc]/[ce]/[Gc]/[EG]/ (6:4:6z/ [EF]/[FA]/[Ac]/[FA]/[EF]/ | %4
 (6:4:6z/ [DF]/[FB]/[Bd]/[FB]/[DF]/ (6:4:6z/ [DF]/[FB]/[Bd]/[FB]/[DF]/ (6:4:6z/ [D^F]/[FB]/[Bd]/[FB]/[DF]/ (6:4:6z/ [DG]/[GB]/[Bd]/[GB]/[DG]/ | %5
 (6:4:6z/ [=EG]/[GB]/[Bd]/[GB]/[EG]/ (6:4:6z/ [EG]/[GA]/[A^c]/[GA]/[EG]/ (6:4:6z/ [_EA]/[A=c]/[ce]/[Ac]/[EA]/ (6:4:6z/ [EA]/[Ac]/[ce]/[Ac]/[EA]/ | %6
 (6:4:6z/ [DG]/[GB]/[Bd]/[GB]/[DG]/ (6:4:6z/ [D=E]/[EB]/[Bd]/[EB]/[DE]/ (6:4:6z/ [CF]/[FA]/[Ac]/[FA]/[CF]/ (6:4:6z/ [FG]/[G=B]/[Bf]/[GB]/[FG]/ | %7
 (6:4:6z/ [FA]/[Ac]/[cf]/[Ac]/[FA]/ (6:4:6z/ [=EB]/[Bc]/[c=e]/[Bc]/[EB]/ (6:4:6z/ [FA]/[Ac]/[cf]/[Ac]/[FA]/ (6:4:6z/ [FA]/[Ac]/[cf]/[Ac]/[FA]/ | %8
 (6:4:6z/ [EA]/[Ac]/[cf]/[Ac]/[EA]/ (6:4:6z/ [EA]/[Ac]/[cf]/[Ac]/[EA]/ (6:4:6z/ [DB]/[Bd]/[df]/[Bd]/[DB]/ (6:4:6z/ [DB]/[Bd]/[df]/[Bd]/[DB]/ | %9
 (6:4:6z/ [EA]/[Ac]/[cf]/[Ac]/[EA]/ (6:4:6z/ [EA]/[Ac]/[cf]/[Ac]/[EA]/ (6:4:6z/ [DG]/[GB]/[Bd]/[GB]/[DG]/ (6:4:6z/ [B,D]/[DG]/[GB]/[DG]/[B,D]/ | %10
 (6:4:6z/ [CF]/[FA]/[Ac]/[FA]/[CF]/ (6:4:6z/ [D^F]/[FA]/[Ad]/[FA]/[DF]/ (6:4:6z/ [EG]/[Gc]/[ce]/[Gc]/[EG]/ (6:4:6z/ [EG]/[Gc]/[ce]/[Gc]/[EG]/ | %11
 (6:4:6z/ [CE]/[EG]/[Gc]/[EG]/[CE]/ (6:4:6z/ [_D=E]/[EB]/[B_d]/[EB]/[DE]/ (6:4:6z/ [CF]/[FA]/[Ac]/[FA]/[CF]/ (6:4:6z/ [_EF]/[FA]/[Ac]/[FA]/[EF]/ | %12
 (6:4:6z/ [DF]/[FB]/[Bd]/[FB]/[DF]/ (6:4:6z/ [D=E]/[EB]/[Bd]/[EB]/[DE]/ (6:4:6z/ [DF]/[FB]/[Bd]/[FB]/[DF]/ (6:4:6z/ [_EF]/[FA]/[Ac]/[FA]/[EF]/ | %13
 (6:4:6z/ [DF]/[FB]/[Bd]/[FB]/[DF]/ (6:4:6z/ [DF]/[FB]/[Bd]/[FB]/[DF]/ (6:4:6z/ [FB]/[Bd]/[df]/[Bd]/[FB]/ (6:4:6z/ [_Ad]/[df]/[f_a]/[df]/[Ad]/ | %14
 (6:4:6z/ [GB]/[Be]/[eg]/[Be]/[GB]/ (6:4:6z/ [_GA]/[Ae]/[e_g]/[Ae]/[GA]/ (6:4:6z/ [FB]/[Bd]/[df]/[Bd]/[FB]/ (6:4:6z/ [DF]/[FB]/[Bd]/[FB]/[DF]/ :| %15
 (6:4:6z/ [B,D]/[DF]/[FB]/[DF]/[B,D]/ (6:4:6z/[I:staff +1] [F,B,]/[B,D]/[DF]/[B,D]/[F,B,]/[I:staff -1] (6:4:6z/[I:staff +1] [D,F,]/[F,B,]/[B,D]/[F,B,]/[D,F,]/[I:staff -1] (6:4:6z/[I:staff +1] [D,F,]/[F,B,]/[B,D]/[F,B,]/[D,F,]/ | %16
 [D,F,B,D]8 |] %17
V:3
 [B,,,B,,] z [B,,,B,,] z [B,,,B,,]!<(! z [B,,,B,,] z!<)! | %1
!>(! [B,,,B,,] z [B,,,B,,] z!>)! [B,,,B,,] z [B,,,B,,] z |: %2
 [B,,,B,,] z [G,,,G,,] z [F,,,F,,] z [F,,,F,,] z | %3
 [G,,,G,,] z [G,,,G,,] z [E,,,E,,] z [F,,,F,,] z | %4
 [B,,,B,,] z [B,,,B,,] z!<(! [B,,,B,,] z [B,,,B,,] z!<)! | %5
!>(! [A,,,A,,] z [A,,,A,,] z!>)! [^F,,,^F,,] z [F,,,F,,] z | %6
 [G,,,G,,] z [G,,,G,,] z [A,,,A,,] z [D,,D,] z | [C,,C,] z [C,,C,] z [F,,F,] z [F,,F,] z | %8
 [F,,F,] z [F,,F,] z [F,,F,] z [F,,F,] z | [F,,F,] z [F,,F,] z [G,,G,] z [G,,G,] z | %10
 [F,,F,] z!<(! [D,,D,] z!<)!!>(! [C,,C,] z [C,,C,] z!>)! | %11
!<(! [E,,E,] z [G,,G,] z!<)!!>(! [F,,F,] z [F,,F,] z!>)! | %12
 [B,,,B,,]!<(! z [G,,,G,,] z!<)!!>(! [F,,,F,,] z [F,,,F,,] z!>)! | %13
 [B,,,B,,] z [B,,,B,,] z [B,,,B,,]!<(! z [B,,,B,,] z!<)! | %14
!>(! [B,,,B,,] z [B,,,B,,] z!>)! [B,,,B,,] z [B,,,B,,] z :| %15
 [B,,,B,,] z [B,,,B,,] z [B,,,B,,] z [B,,,B,,] z | [B,,,F,,B,,]8 |] %17

